X:244
T: ACH DU KLARER BLAUER HIMMEL
N: B0292
O: Europa, Mitteleuropa, Deutschland
R: Stimmungs - Lied, Freude
M: 3/8
L: 1/32
K: F
A3B | c4G6A2 | G4F4
F3F | f6e2d4 | c8
c2d2 | e4c4d4 | e4c4
=B2A2 | G4d6e2 | c8
d2c2 | B4B4A2c2 | B8
G3A | c4B6B2 | e8
A2A2 | f4e4d4 | c6B2
A4 | A4F4G2c2 | A8

@@@ Tune index: 2047
